public/icon/16/home.svg

<svg viewBox="0 0 16 16">
  <g class="home">
    <path d="M15 7 8 1 1 7h1v8h4V9h4v6h4V7h1Z" class="fill-(--icon-fill)"/>
    <path d="m1 7 7-6 7 6" class="fill-none stroke-current stroke-2 sl-r"/>
    <path d="M10 9H6v5h4V9Z" class="fill-(--icon-fill)"/>
    <path d="M2 6.33V15h4V9h4v6h4V6.33" class="fill-none stroke-current stroke-2 sl-r"/>
    <path d="M6 14h4" class="fill-none stroke-current stroke-2 sl-r"/>
  </g>
</svg>

<svg width="16" height="16" viewBox="0 0 16 16" fill="none" xmlns="http://www.w3.org/2000/svg">
<path d="M15 7L8 1L1 7H2V15H6V9H10V15H14V7H15Z" fill="white"/>
<path d="M1 7L8 1L15 7" stroke="#092E24" stroke-width="2" stroke-miterlimit="10" stroke-linecap="round" stroke-linejoin="round"/>
<path d="M10 9H6V14H10V9Z" fill="white"/>
<path d="M2 6.33V15H6V9H10V15H14V6.33" stroke="#092E24" stroke-width="2" stroke-miterlimit="10" stroke-linecap="round" stroke-linejoin="round"/>
<path d="M6 14H10" stroke="#092E24" stroke-width="2" stroke-miterlimit="10" stroke-linecap="round" stroke-linejoin="round"/>
</svg>
